!!! OTL: Berkowitz244
!!! Chapter: 1
!!! Section: II
!!! Page: 56
!!! Mode: 
!!! Encoder: DJB
**kern
*staff1
*I"Piano
=1-
*clefG2
*k[f#c#g#]
*f#:
*M6/8
8r
8r
8r
8r
8a/L
8b/J
=2
8.cc#\L
16dd\K
8cc#\J
8ff#\L
8ee#\
8ff#\J
=3
4b\
8a#/
4b\
8b#\
=4
8.cc#\L
16dd\K
8cc#\J
4ff#\
8gg#\
=5
4.ee#\
8r
8r
8cc#\
=6
8dd\
8r
8dd#\
8ee\
8r
8dd#\
=7
!!linebreak:original
8ee\
8r
8ee#\
8ff#\
8r
8r
=8
8.cc#\L
16dd\K
8cc#\J
8b/L
8a/
8g#/J
=9
8cc#\
8r
8e#/
8f#/
4r
==
*-
